X: 16255
T: Greig's Pipes
R: reel
M: 4/4
K: Amajor
|:eAcA eAAf|eAcA BFFf|eAcA eAcA|1 B/B/B cA BFFf:|2 B/B/B cA BF(3Bcd||
|:cAcB cAAB|cAcA BFBd|cAcA EAcA|1 B/B/B cA BFBd:|2 B/B/B cA BFFA|
EA,CA, EA,A,F|EA,CE FB,B,F|EA,CA, EA,CA,|B,/B,/B, (3CDE FB,B,F|
EA,CA, CEEA|EA,CE FB,B,F|EA,CA, EA,CA,|B,/B,/B, (3CDE FB,B,F|
EAAE CA,EC|EAAE FB,B,F|EAAE CA,EC|B,/B,/B, (3CDE FB,B,F|
EAAE CA,EE|EAAE FB,B,F|EAAE CA,EA,|B,/B,/B, (3CDE FB,B,f|

